X: 10611
T: PRINCE ALFRED'S HORNPIPE
C: Composed by W. B. Laybourn
R: hornpipe
B: K\"ohler's Violin Repository, v.1, 1885 p.61 #1
F: http://www.archive.org/details/klersviolinrepos01edin
Z: 2011 John Chambers <jc:trillian.mit.edu>
M: C|
L: 1/8
K: E
uB2 |\
e2 (3dfb (ag)fe | (de)fe dBcd | (eB) (fB) (gB) (aB) | (^aB) (bB) (=aB) (fB) |
e2 (3dfb (ag)fe | (de)fe dBcd | (eB) (fB) (gB) (aB) | d>f (3egb e2 :|
|: uA2 |\
(FA)df (af)dA | GBeg b2^a2 | (3=aba (3gag (3fgf (3efe | (3ded (3cdc B^A=AG |
(FA)df (af)dA | GBeg b2^A2 | (3Bcd  (3efg (3aba g2 | (3fgf (3Bcd e2 :|

%%sep 2 1 500

